X: 1280
T: Bill Painter's First Set Tune
B: australian traditional tunes wiki
M:6/8
L:1/8
R: Jig
Q: 3/8=100
K:G
V:1 
|:"G"DED DFG|"D7"ABA "G"BAG|DCB, DCB,|"D7"A,3-A,2G,|
"G"DED DFG|"D7"ABA "G"BAG|"D7"DEF "C"G2A|"G"BAG G2z:|
|:"G"gdg- gcd|"C"ege- ege|"G"gdg- gcd|"Am"cdc "D7"A3|
"G"g3 "D7"d3|"Am"ABA "Em"BAG|"D7"DEF "C"G2A|"G"BAG G3:|
% abcbook-tune_id 6342d53a547cd5c868f8963c


% abcbook-boost 0
% abcbook-tablature 
% abcbook-transpose 
% abcbook-lastupdated 1665324357239
% abcbook-soundfonts 
% abcbook-repeats 1
% NFF Book 2009

